X:3223
L:1/8
Q:1/8=160
M:6/8
K:D
 z | DED F2 A | d2 f ecA | G2 B F2 A | E2 F GFE | DED F2 A | d2 f ecA | Bgf edc | d3 d2 :| f | 
 a2 f f2 d | A2 a agf | g2 e e2 c | A2 g gfe | f2 d g2 e | a2 f gbg | faf edc | d3 d2 :|

